!!!OTL: 1145. Zutrinken.
!!!ARE: Europa, Mitteleuropa, Deutschland, Schlesien, Glogau
!!!SCT: E1145
!!!TXL: @@DE
!!!YEM: Copyright 1995, estate of Helmut Schaffrath.
**kern	**text	**text
*ICvox	*	*
*M3/4	*	*
*k[f#c#]	*	*
*D:	*	*
!LO:TX:a:t=Munter.	!	!
!LO:TX:a:t=Schleſien (Glogau). Erk I, 3, 13.	!	!
{8dL	1._Herr	2._Auf
8eJ	.	das
=1	=1	=1
4f#	Bru-	Wohlſein
4f#	-der	der
4f#	ʒur	Aller-
=2	=2	=2
4f#	Rech-	-ſchön-
4e}	-ten,	-ſen,
{8eL	Herr	die
8f#J	.	da
=3	=3	=3
4g	Schwa-	le-
4g	-ger	-bet
4g	ʒur	auf
=4	=4	=4
4g	Lin-	Er-
4f#}	-ken,	-den,
{8a	laßt	trin-
8a	uns	-ket
=5	=5	=5
4dd	Al-	Al-
4cc#	-le,	-le,
8b	laßt	trin-
8b	uns	-ket
=6	=6	=6
4a	Al-	Al-
4f#}	-le	-le,
{8a	heut	trin-
8a	.	-ket
=7	=7	=7
4g	fröh-	All
4e	-lich	.
4cc#	Ein's	Ein
=8	=8	=8
4dd	trin-	Hoch!
4d}	-ken.	.
==	==	==
!!!AGN: Trink -, Zech - Lied
!!!ONB: ESAC (Essen Associative Code) Database: ERK3
!!!AMT: simple triple
!!!AIN: vox
!!!EED: Helmut Schaffrath
!!!EEV: 1.0
!!!GTL: Trink- und Zechlieder.
!!!URL-scan: https://rosdok.uni-rostock.de/mcrviewer/recordIdentifier/rosdok_ppn745177999/iview2/phys_0080.iview2?x=175.33309798665778&y=2062.067888462625&scale=0.701185927818147&rotation=0&layout=singlePageLayout
!!!ENC: Anna Maria Matuszewska
!!!EEV: 2024/12/23
*-	*-	*-
